pp/tool_print.svg

<svg viewBox="0 0 20 20" fill="none" xmlns="http://www.w3.org/2000/svg" height="1em" width="1em">
  <g opacity="0.8">
    <path d="M13.3008 7.83234L18.6031 14.1514C19.4906 15.209 19.3527 16.7859 18.295 17.6734C17.2373 18.5609 15.6604 18.423 14.7729 17.3653L9.47063 11.0463C9.34739 10.8994 9.23881 10.7414 9.14614 10.5746C7.79242 10.6159 6.43645 10.0062 5.50123 8.89166C4.31866 7.48233 4.05794 5.56096 4.81266 4.02998C4.97231 3.70613 5.41207 3.65308 5.64415 3.92966L7.38562 6.00506C7.56312 6.2166 7.8785 6.24419 8.09004 6.06669L8.67131 5.57895C8.88284 5.40145 8.91044 5.08607 8.73293 4.87453L6.99147 2.79913C6.75938 2.52254 6.88799 2.09868 7.23464 1.99769C8.87343 1.52029 10.7203 2.11069 11.9029 3.52002C12.8501 4.64882 13.2119 6.1123 12.9169 7.45073C13.0558 7.56585 13.1844 7.69351 13.3008 7.83234Z" fill="currentColor"/>
  </g>
  <path fill-rule="evenodd" clip-rule="evenodd" d="M11.8763 7.57355C11.7599 7.43472 11.6313 7.30706 11.4924 7.19194C11.7874 5.85352 11.4256 4.39003 10.4784 3.26123C9.29583 1.85191 7.44893 1.2615 5.81015 1.73891C5.46349 1.83989 5.33488 2.26376 5.56697 2.54034L7.30844 4.61574C7.48594 4.82728 7.45834 5.14266 7.24681 5.32016L6.66554 5.8079C6.454 5.9854 6.13862 5.95781 5.96112 5.74627L4.21965 3.67087C3.98757 3.39429 3.54781 3.44734 3.38816 3.77119C2.63344 5.30217 2.89416 7.22354 4.07673 8.63287C5.01195 9.74742 6.36792 10.3571 7.72164 10.3158C7.81431 10.4826 7.92289 10.6406 8.04613 10.7875L13.3484 17.1065C14.2359 18.1642 15.8128 18.3022 16.8705 17.4146C17.9282 16.5271 18.0661 14.9503 17.1786 13.8926L11.8763 7.57355ZM4.84278 7.99008C4.10835 7.11483 3.82676 5.99906 4.02334 4.99264L5.19508 6.38906C5.72758 7.02367 6.67371 7.10645 7.30832 6.57395L7.8896 6.0862C8.52421 5.5537 8.60698 4.60757 8.07448 3.97296L6.90274 2.57653C7.92801 2.55771 8.97793 3.02877 9.71236 3.90402C10.5257 4.87332 10.7896 6.14369 10.4446 7.24405C10.377 7.45967 10.4625 7.69383 10.653 7.81527C10.8248 7.92473 10.979 8.0599 11.1103 8.21634L16.4126 14.5354C16.9451 15.17 16.8623 16.1161 16.2277 16.6486C15.5931 17.1811 14.647 17.0983 14.1145 16.4637L8.81217 10.1447C8.6765 9.98302 8.56748 9.80114 8.48889 9.60585C8.40467 9.39659 8.19075 9.26963 7.96671 9.29595C6.83357 9.42906 5.64661 8.94805 4.84278 7.99008Z" fill="black"/>
</svg>

<svg viewBox="0 0 20 20" fill="none" xmlns="http://www.w3.org/2000/svg" height="1em" width="1em">
  <path d="m13.3 7.832 5.303 6.32a2.5 2.5 0 1 1-3.83 3.213L9.47 11.046a3.003 3.003 0 0 1-.325-.471c-1.354.04-2.71-.569-3.645-1.683-1.18-1.41-1.442-3.332-.687-4.862a.5.5 0 0 1 .831-.1l1.742 2.075a.5.5 0 0 0 .704.062l.581-.488a.5.5 0 0 0 .062-.704L6.99 2.799a.5.5 0 0 1 .244-.801c1.638-.478 3.485.113 4.668 1.522.947 1.129 1.309 2.592 1.014 3.93.139.116.267.244.384.382Z" fill="currentColor" opacity=".8"/>
  <path fill-rule="evenodd" clip-rule="evenodd" d="M11.876 7.574a2.995 2.995 0 0 0-.384-.382c.295-1.338-.066-2.802-1.014-3.93-1.182-1.41-3.03-2-4.668-1.523a.5.5 0 0 0-.243.801l1.741 2.076a.5.5 0 0 1-.061.704l-.581.488a.5.5 0 0 1-.705-.062L4.22 3.671a.5.5 0 0 0-.832.1c-.755 1.531-.494 3.453.689 4.862.935 1.114 2.29 1.724 3.645 1.683.092.167.2.325.324.471l5.302 6.32a2.5 2.5 0 1 0 3.83-3.214l-5.302-6.32Zm-7.033.416c-.735-.875-1.016-1.99-.82-2.997l1.172 1.396a1.5 1.5 0 0 0 2.113.185l.582-.488a1.5 1.5 0 0 0 .184-2.113L6.903 2.577c1.025-.02 2.075.452 2.81 1.327.813.97 1.077 2.24.732 3.34a.5.5 0 0 0 .208.571 2 2 0 0 1 .457.401l5.303 6.32a1.5 1.5 0 1 1-2.299 1.928l-5.302-6.32a2 2 0 0 1-.323-.538.5.5 0 0 0-.522-.31c-1.133.133-2.32-.348-3.124-1.306Z" fill="#000"/>
</svg>
